X: 14533
T: Gan Ainm
R: jig
M: 6/8
K: Dmajor
|:f2 f efg|fed B2A|FAA GAB|f2f ede|
f2 f efg|fed B2A|FAA GAB|edc d3:|
|:B2B Bde|faa fed|e2e fed|Bde fed|
B2B Bde|faa fed|e2e fed|B2A B3:|

